img/link-icon-wikipedia.svg

<svg width="650" height="650" fill="none" xmlns="http://www.w3.org/2000/svg"><path fill="#fff" d="M0 0H650V650H0z"/><g clip-path="url(#clip0_256_325)"><path d="M120.103 220.565c-11.29-18.988-30.814-37.758-44.905-43.172l-2.272-.873v-18.684h129.459v17.547c-16.922 2.104-37.32 10.374-31.667 29.344 32.26 71.277 61.615 143.836 93.465 215.293l54.667-102.221c-21.154-43.33-36.564-87.163-59.721-129.672-7.55-12.241-27.967-12.583-42.427-13.056v-17.235h121.347v17.071c-10.903 1.507-23.756 4.097-22.298 17.312l34.328 75.922c11.298-24.1 23.854-47.689 33.818-72.39 4.523-19.557-17.48-20.53-31.512-21.075v-16.84H460.22v16.795c-15.799 1.117-30.745 5.673-39.458 17.354-21.181 32.743-36.892 69.898-53.389 105.463 16.3 38.546 33.289 77.039 49.949 112.381l92.117-212.479c-6.214-14.006-20.287-18.953-34.1-22.157v-17.357h101.443v17.704c-4.552.708-8.909 2.112-13.124 3.951-7.987 3.707-15.532 11.064-20.593 20.081L416.022 491.87h-21.206l-60.404-142.264-73.323 142.253-22.014.002c-42.838-89.233-73.832-183.136-118.972-271.296z" fill="#000"/></g><defs><clipPath id="clip0_256_325"><path fill="#fff" transform="translate(75 75)" d="M0 0H500V500H0z"/></clipPath></defs></svg>

<svg width="650" height="650" viewBox="0 0 650 650" fill="none" xmlns="http://www.w3.org/2000/svg">
<rect width="650" height="650" fill="white"/>
<g clip-path="url(#clip0_256_325)">
<path d="M120.103 220.565C108.813 201.577 89.289 182.807 75.1975 177.393L72.9258 176.52V167.377V157.836H202.385V175.383C185.463 177.487 165.065 185.757 170.718 204.727C202.978 276.004 232.333 348.563 264.183 420.02L318.85 317.799C297.696 274.469 282.286 230.636 259.129 188.127C251.579 175.886 231.162 175.544 216.702 175.071V157.836H338.049V174.907C327.146 176.414 314.293 179.004 315.751 192.219L350.079 268.141C361.377 244.041 373.933 220.452 383.897 195.751C388.42 176.194 366.417 175.221 352.385 174.676V157.836H460.22V174.631C444.421 175.748 429.475 180.304 420.762 191.985C399.581 224.728 383.87 261.883 367.373 297.448C383.673 335.994 400.662 374.487 417.322 409.829L509.439 197.35C503.225 183.344 489.152 178.397 475.339 175.193V157.836H576.782V175.54C572.23 176.248 567.873 177.652 563.658 179.491C555.671 183.198 548.126 190.555 543.065 199.572L416.022 491.87H394.816L334.412 349.606L261.089 491.859L239.075 491.861C196.237 402.628 165.243 308.725 120.103 220.565Z" fill="black"/>
</g>
<defs>
<clipPath id="clip0_256_325">
<rect width="500" height="500" fill="white" transform="translate(75 75)"/>
</clipPath>
</defs>
</svg>
